Newaita-dark/.places-gray/24/folder-open.svg

<svg xmlns="http://www.w3.org/2000/svg" xmlns:xlink="http://www.w3.org/1999/xlink" width="24px" height="24px" viewBox="0 0 24 24" version="1.1">
<defs>
<linearGradient id="linear0" gradientUnits="userSpaceOnUse" x1="254" y1="233.5" x2="254" y2="254.667007" gradientTransform="matrix(0.0468787,0,0,0.0468787,0,10.07925)">
<stop offset="0" style="stop-color:rgb(0%,0%,0%);stop-opacity:0.275;"/>
<stop offset="1" style="stop-color:rgb(0%,0%,0%);stop-opacity:0;"/>
</linearGradient>
<radialGradient id="radial0" gradientUnits="userSpaceOnUse" cx="450.908997" cy="189.578995" fx="450.908997" fy="189.578995" r="21.167" gradientTransform="matrix(0,-0.0585975,-0.10548,0,40.586251,47.696251)">
<stop offset="0" style="stop-color:rgb(0%,0%,0%);stop-opacity:0.314;"/>
<stop offset="0.222" style="stop-color:rgb(0%,0%,0%);stop-opacity:0.275;"/>
<stop offset="1" style="stop-color:rgb(0%,0%,0%);stop-opacity:0;"/>
</radialGradient>
<radialGradient id="radial1" gradientUnits="userSpaceOnUse" cx="450.908997" cy="189.578995" fx="450.908997" fy="189.578995" r="21.167" gradientTransform="matrix(0,0.0585975,0.10548,0,-16.7715,-5.645625)">
<stop offset="0" style="stop-color:rgb(0%,0%,0%);stop-opacity:0.314;"/>
<stop offset="0.222" style="stop-color:rgb(0%,0%,0%);stop-opacity:0.275;"/>
<stop offset="1" style="stop-color:rgb(0%,0%,0%);stop-opacity:0;"/>
</radialGradient>
<radialGradient id="radial2" gradientUnits="userSpaceOnUse" cx="450.908997" cy="189.578995" fx="450.908997" fy="189.578995" r="21.167" gradientTransform="matrix(0,-0.0585975,0.10548,0,-16.7715,47.696251)">
<stop offset="0" style="stop-color:rgb(0%,0%,0%);stop-opacity:0.314;"/>
<stop offset="0.222" style="stop-color:rgb(0%,0%,0%);stop-opacity:0.275;"/>
<stop offset="1" style="stop-color:rgb(0%,0%,0%);stop-opacity:0;"/>
</radialGradient>
<radialGradient id="radial3" gradientUnits="userSpaceOnUse" cx="450.908997" cy="189.578995" fx="450.908997" fy="189.578995" r="21.167" gradientTransform="matrix(0,0.0585975,-0.10548,0,40.586251,-5.645625)">
<stop offset="0" style="stop-color:rgb(0%,0%,0%);stop-opacity:0.314;"/>
<stop offset="0.222" style="stop-color:rgb(0%,0%,0%);stop-opacity:0.275;"/>
<stop offset="1" style="stop-color:rgb(0%,0%,0%);stop-opacity:0;"/>
</radialGradient>
<linearGradient id="linear1" gradientUnits="userSpaceOnUse" x1="960" y1="255.117996" x2="960" y2="1215.118042" gradientTransform="matrix(0.012405,0,0,0.012405,0,0)">
<stop offset="0" style="stop-color:rgb(34.509805%,34.509805%,34.509805%);stop-opacity:0;"/>
<stop offset="1" style="stop-color:rgb(98.039216%,98.039216%,98.039216%);stop-opacity:0.196;"/>
</linearGradient>
<linearGradient id="linear2" gradientUnits="userSpaceOnUse" x1="254" y1="106.5" x2="254" y2="-84" gradientTransform="matrix(1,0,0,1,0,0)">
<stop offset="0" style="stop-color:rgb(87.843138%,87.843138%,87.843138%);stop-opacity:1;"/>
<stop offset="1" style="stop-color:rgb(93.333334%,93.333334%,93.333334%);stop-opacity:1;"/>
</linearGradient>
<linearGradient id="linear3" gradientUnits="userSpaceOnUse" x1="960" y1="1695.118042" x2="960" y2="855.117981" gradientTransform="matrix(0.012405,0,0,0.012405,0,0)">
<stop offset="0" style="stop-color:rgb(34.509805%,34.509805%,34.509805%);stop-opacity:0;"/>
<stop offset="1" style="stop-color:rgb(98.039216%,98.039216%,98.039216%);stop-opacity:0.196;"/>
</linearGradient>
</defs>
<g id="surface1">
<path style=" stroke:none;fill-rule:nonzero;fill:url(#linear0);" d="M 2.976562 21.023438 L 20.835938 21.023438 L 20.835938 22.019531 L 2.976562 22.019531 Z M 2.976562 21.023438 "/>
<path style=" stroke:none;fill-rule:nonzero;fill:url(#radial0);" d="M 20.835938 21.023438 L 22.820312 21.023438 L 22.820312 20.035156 L 20.835938 20.035156 Z M 20.835938 21.023438 "/>
<path style=" stroke:none;fill-rule:nonzero;fill:url(#radial1);" d="M 2.976562 21.023438 L 0.992188 21.023438 L 0.992188 22.019531 L 2.976562 22.019531 Z M 2.976562 21.023438 "/>
<path style=" stroke:none;fill-rule:nonzero;fill:url(#radial2);" d="M 2.976562 21.023438 L 0.992188 21.023438 L 0.992188 20.035156 L 2.976562 20.035156 Z M 2.976562 21.023438 "/>
<path style=" stroke:none;fill-rule:nonzero;fill:url(#radial3);" d="M 20.835938 21.023438 L 22.820312 21.023438 L 22.820312 22.019531 L 20.835938 22.019531 Z M 20.835938 21.023438 "/>
<path style=" stroke:none;fill-rule:nonzero;fill:rgb(45.882353%,45.882353%,45.882353%);fill-opacity:1;" d="M 5.457031 3.164062 C 5.195312 3.164062 4.941406 3.269531 4.753906 3.453125 C 4.570312 3.640625 4.464844 3.894531 4.464844 4.15625 L 4.464844 5.148438 L 1.984375 5.148438 C 1.722656 5.148438 1.46875 5.253906 1.28125 5.4375 C 1.097656 5.625 0.992188 5.878906 0.992188 6.140625 L 0.992188 14.082031 C 0.992188 14.34375 1.097656 14.597656 1.28125 14.78125 C 1.46875 14.96875 1.722656 15.070312 1.984375 15.070312 L 21.832031 15.070312 C 22.09375 15.070312 22.347656 14.96875 22.53125 14.78125 C 22.71875 14.597656 22.824219 14.34375 22.820312 14.082031 L 22.820312 6.140625 C 22.820312 5.886719 22.726562 5.660156 22.574219 5.484375 L 22.574219 4.15625 C 22.574219 3.894531 22.472656 3.640625 22.285156 3.453125 C 22.097656 3.265625 21.84375 3.164062 21.582031 3.164062 Z M 5.457031 3.164062 "/>
<path style=" stroke:none;fill-rule:nonzero;fill:url(#linear1);" d="M 5.457031 3.164062 C 5.195312 3.164062 4.941406 3.269531 4.753906 3.453125 C 4.570312 3.640625 4.464844 3.894531 4.464844 4.15625 L 4.464844 5.148438 L 1.984375 5.148438 C 1.722656 5.148438 1.46875 5.253906 1.28125 5.4375 C 1.097656 5.625 0.992188 5.878906 0.992188 6.140625 L 0.992188 14.082031 C 0.992188 14.34375 1.097656 14.597656 1.28125 14.78125 C 1.46875 14.96875 1.722656 15.070312 1.984375 15.070312 L 21.832031 15.070312 C 22.09375 15.070312 22.347656 14.96875 22.53125 14.78125 C 22.71875 14.597656 22.824219 14.34375 22.820312 14.082031 L 22.820312 6.140625 C 22.820312 5.886719 22.726562 5.660156 22.574219 5.484375 L 22.574219 4.15625 C 22.574219 3.894531 22.472656 3.640625 22.285156 3.453125 C 22.097656 3.265625 21.84375 3.164062 21.582031 3.164062 Z M 5.457031 3.164062 "/>
<path style="fill-rule:nonzero;fill:url(#linear2);stroke-width:3;stroke-linecap:round;stroke-linejoin:miter;stroke:rgb(12.941177%,12.941177%,12.941177%);stroke-opacity:1;stroke-miterlimit:4;" d="M 52.912434 -84.017282 L 455.046934 -84.017282 C 460.963128 -84.017282 465.712748 -79.267661 465.712748 -73.434795 L 465.712748 95.884995 C 465.712748 101.717862 460.963128 106.467482 455.046934 106.467482 L 52.912434 106.467482 C 47.079567 106.467482 42.329947 101.717862 42.329947 95.884995 L 42.329947 -73.434795 C 42.329947 -79.267661 47.079567 -84.017282 52.912434 -84.017282 Z M 52.912434 -84.017282 " transform="matrix(0.0468787,0,0,0.0468787,0,10.07925)"/>
<path style=" stroke:none;fill-rule:nonzero;fill:rgb(90.196079%,90.196079%,90.196079%);fill-opacity:0.588;" d="M 5.457031 3.164062 C 5.195312 3.164062 4.941406 3.269531 4.753906 3.453125 C 4.570312 3.640625 4.464844 3.894531 4.464844 4.15625 L 4.464844 4.28125 C 4.464844 4.015625 4.570312 3.765625 4.753906 3.578125 C 4.941406 3.390625 5.195312 3.289062 5.457031 3.289062 L 21.582031 3.289062 C 21.84375 3.289062 22.097656 3.390625 22.285156 3.578125 C 22.46875 3.765625 22.574219 4.015625 22.574219 4.28125 L 22.574219 4.15625 C 22.574219 3.894531 22.472656 3.640625 22.285156 3.453125 C 22.097656 3.265625 21.84375 3.164062 21.582031 3.164062 Z M 5.457031 3.164062 "/>
<path style=" stroke:none;fill-rule:nonzero;fill:rgb(12.941177%,12.941177%,12.941177%);fill-opacity:1;" d="M 5.457031 3.09375 C 4.871094 3.09375 4.394531 3.570312 4.394531 4.15625 L 4.394531 5.078125 L 1.984375 5.078125 C 1.703125 5.078125 1.433594 5.191406 1.234375 5.390625 C 1.035156 5.589844 0.921875 5.859375 0.921875 6.140625 L 0.921875 14.082031 C 0.921875 14.363281 1.035156 14.632812 1.234375 14.832031 C 1.433594 15.03125 1.703125 15.140625 1.984375 15.140625 L 21.832031 15.140625 C 22.113281 15.140625 22.382812 15.03125 22.582031 14.832031 C 22.78125 14.632812 22.894531 14.363281 22.894531 14.082031 L 22.894531 6.140625 C 22.890625 5.890625 22.804688 5.652344 22.644531 5.460938 L 22.644531 4.15625 C 22.644531 3.570312 22.167969 3.09375 21.582031 3.09375 Z M 5.457031 3.234375 L 21.582031 3.234375 C 21.828125 3.234375 22.0625 3.332031 22.234375 3.503906 C 22.40625 3.675781 22.503906 3.910156 22.503906 4.15625 L 22.503906 5.511719 L 22.523438 5.53125 C 22.664062 5.691406 22.75 5.90625 22.75 6.140625 L 22.75 14.082031 C 22.753906 14.324219 22.65625 14.558594 22.484375 14.734375 C 22.308594 14.90625 22.074219 15.003906 21.832031 15 L 1.984375 15 C 1.738281 15.003906 1.503906 14.90625 1.332031 14.734375 C 1.160156 14.558594 1.0625 14.324219 1.0625 14.082031 L 1.0625 6.140625 C 1.0625 5.894531 1.160156 5.660156 1.332031 5.488281 C 1.503906 5.316406 1.738281 5.21875 1.984375 5.21875 L 4.535156 5.21875 L 4.535156 4.15625 C 4.535156 3.910156 4.628906 3.675781 4.804688 3.503906 C 4.976562 3.328125 5.214844 3.234375 5.457031 3.234375 Z M 5.457031 3.234375 "/>
<path style=" stroke:none;fill-rule:nonzero;fill:rgb(74.117649%,74.117649%,74.117649%);fill-opacity:1;" d="M 1.984375 9.613281 C 1.722656 9.613281 1.46875 9.71875 1.28125 9.902344 C 1.097656 10.089844 0.992188 10.34375 0.992188 10.605469 L 0.992188 20.035156 C 0.992188 20.296875 1.097656 20.550781 1.28125 20.734375 C 1.46875 20.921875 1.722656 21.023438 1.984375 21.023438 L 21.832031 21.023438 C 22.09375 21.023438 22.347656 20.921875 22.53125 20.734375 C 22.71875 20.550781 22.824219 20.296875 22.820312 20.035156 L 22.820312 10.605469 L 9.425781 10.605469 C 9.164062 10.605469 8.910156 10.503906 8.722656 10.316406 C 8.539062 10.128906 8.433594 9.878906 8.433594 9.613281 Z M 1.984375 9.613281 "/>
<path style=" stroke:none;fill-rule:nonzero;fill:rgb(0%,0%,0%);fill-opacity:0.196;" d="M 1.984375 21.023438 C 1.722656 21.023438 1.46875 20.921875 1.28125 20.734375 C 1.097656 20.550781 0.992188 20.296875 0.992188 20.035156 L 0.992188 19.910156 C 0.992188 20.171875 1.097656 20.425781 1.28125 20.613281 C 1.46875 20.796875 1.722656 20.902344 1.984375 20.902344 L 21.832031 20.902344 C 22.09375 20.902344 22.347656 20.796875 22.53125 20.609375 C 22.71875 20.425781 22.824219 20.171875 22.820312 19.910156 L 22.820312 20.035156 C 22.824219 20.296875 22.71875 20.550781 22.53125 20.734375 C 22.347656 20.921875 22.09375 21.023438 21.832031 21.023438 Z M 1.984375 21.023438 "/>
<path style=" stroke:none;fill-rule:nonzero;fill:rgb(90.196079%,90.196079%,90.196079%);fill-opacity:0.937;" d="M 1.984375 9.613281 C 1.722656 9.613281 1.46875 9.71875 1.28125 9.902344 C 1.097656 10.089844 0.992188 10.34375 0.992188 10.605469 L 0.992188 10.730469 C 0.992188 10.464844 1.097656 10.214844 1.28125 10.027344 C 1.46875 9.84375 1.722656 9.738281 1.984375 9.738281 L 8.433594 9.738281 L 8.433594 9.613281 Z M 1.984375 9.613281 "/>
<path style=" stroke:none;fill-rule:nonzero;fill:rgb(90.196079%,90.196079%,90.196079%);fill-opacity:0.937;" d="M 9.425781 10.730469 C 9.164062 10.730469 8.910156 10.625 8.722656 10.441406 C 8.539062 10.253906 8.433594 10 8.433594 9.738281 L 8.433594 9.613281 C 8.433594 9.878906 8.539062 10.128906 8.722656 10.316406 C 8.910156 10.503906 9.164062 10.605469 9.425781 10.605469 L 22.882812 10.605469 L 22.882812 10.730469 Z M 9.425781 10.730469 "/>
<path style=" stroke:none;fill-rule:nonzero;fill:url(#linear3);" d="M 1.984375 9.613281 C 1.722656 9.613281 1.46875 9.71875 1.28125 9.902344 C 1.097656 10.089844 0.992188 10.34375 0.992188 10.605469 L 0.992188 20.035156 C 0.992188 20.296875 1.097656 20.550781 1.28125 20.734375 C 1.46875 20.921875 1.722656 21.023438 1.984375 21.023438 L 21.832031 21.023438 C 22.09375 21.023438 22.347656 20.921875 22.53125 20.734375 C 22.71875 20.550781 22.824219 20.296875 22.820312 20.035156 L 22.820312 10.605469 L 9.425781 10.605469 C 9.164062 10.605469 8.910156 10.503906 8.722656 10.316406 C 8.539062 10.128906 8.433594 9.878906 8.433594 9.613281 Z M 1.984375 9.613281 "/>
<path style=" stroke:none;fill-rule:nonzero;fill:rgb(12.941177%,12.941177%,12.941177%);fill-opacity:1;" d="M 1.984375 9.542969 C 1.398438 9.542969 0.921875 10.019531 0.921875 10.605469 L 0.921875 20.035156 C 0.921875 20.316406 1.035156 20.585938 1.234375 20.785156 C 1.433594 20.984375 1.703125 21.09375 1.984375 21.09375 L 21.832031 21.09375 C 22.113281 21.09375 22.382812 20.984375 22.582031 20.785156 C 22.78125 20.585938 22.894531 20.316406 22.894531 20.035156 L 22.894531 10.535156 L 9.425781 10.535156 C 9.179688 10.539062 8.945312 10.441406 8.773438 10.265625 C 8.601562 10.09375 8.503906 9.859375 8.503906 9.613281 L 8.503906 9.542969 Z M 1.984375 9.683594 L 8.367188 9.683594 C 8.402344 10.242188 8.867188 10.675781 9.425781 10.675781 L 22.753906 10.675781 L 22.753906 20.035156 C 22.753906 20.277344 22.65625 20.511719 22.484375 20.6875 C 22.308594 20.859375 22.074219 20.957031 21.832031 20.953125 L 1.984375 20.953125 C 1.738281 20.957031 1.503906 20.859375 1.332031 20.6875 C 1.160156 20.511719 1.0625 20.277344 1.0625 20.035156 L 1.0625 10.605469 C 1.0625 10.363281 1.15625 10.125 1.332031 9.953125 C 1.503906 9.78125 1.738281 9.683594 1.984375 9.683594 Z M 1.984375 9.683594 "/>
</g>
</svg>

<svg xmlns="http://www.w3.org/2000/svg" width="32" height="32" viewBox="0 0 24 24"><defs><linearGradient id="a" gradientUnits="userSpaceOnUse" x1="254" y1="233.5" x2="254" y2="254.667" gradientTransform="matrix(.04688 0 0 .04688 0 10.08)"><stop offset="0" stop-opacity=".275"/><stop offset="1" stop-opacity="0"/></linearGradient><radialGradient id="b" gradientUnits="userSpaceOnUse" cx="450.909" cy="189.579" fx="450.909" fy="189.579" r="21.167" gradientTransform="matrix(0 -.0586 -.10548 0 40.586 47.696)"><stop offset="0" stop-opacity=".314"/><stop offset=".222" stop-opacity=".275"/><stop offset="1" stop-opacity="0"/></radialGradient><radialGradient id="c" gradientUnits="userSpaceOnUse" cx="450.909" cy="189.579" fx="450.909" fy="189.579" r="21.167" gradientTransform="matrix(0 .0586 .10548 0 -16.772 -5.646)"><stop offset="0" stop-opacity=".314"/><stop offset=".222" stop-opacity=".275"/><stop offset="1" stop-opacity="0"/></radialGradient><radialGradient id="d" gradientUnits="userSpaceOnUse" cx="450.909" cy="189.579" fx="450.909" fy="189.579" r="21.167" gradientTransform="matrix(0 -.0586 .10548 0 -16.772 47.696)"><stop offset="0" stop-opacity=".314"/><stop offset=".222" stop-opacity=".275"/><stop offset="1" stop-opacity="0"/></radialGradient><radialGradient id="e" gradientUnits="userSpaceOnUse" cx="450.909" cy="189.579" fx="450.909" fy="189.579" r="21.167" gradientTransform="matrix(0 .0586 -.10548 0 40.586 -5.646)"><stop offset="0" stop-opacity=".314"/><stop offset=".222" stop-opacity=".275"/><stop offset="1" stop-opacity="0"/></radialGradient><linearGradient id="f" gradientUnits="userSpaceOnUse" x1="960" y1="255.118" x2="960" y2="1215.118" gradientTransform="matrix(.0124 0 0 .0124 0 0)"><stop offset="0" stop-color="#585858" stop-opacity="0"/><stop offset="1" stop-color="#fafafa" stop-opacity=".196"/></linearGradient><linearGradient id="g" gradientUnits="userSpaceOnUse" x1="254" y1="106.5" x2="254" y2="-84"><stop offset="0" stop-color="#e0e0e0"/><stop offset="1" stop-color="#eee"/></linearGradient><linearGradient id="h" gradientUnits="userSpaceOnUse" x1="960" y1="1695.118" x2="960" y2="855.118" gradientTransform="matrix(.0124 0 0 .0124 0 0)"><stop offset="0" stop-color="#585858" stop-opacity="0"/><stop offset="1" stop-color="#fafafa" stop-opacity=".196"/></linearGradient></defs><path d="M2.977 21.027H20.84v.993H2.977zm0 0" fill="url(#a)"/><path d="M20.84 21.027h1.984v-.996H20.84zm0 0" fill="url(#b)"/><path d="M2.977 21.027H.992v.993h1.985zm0 0" fill="url(#c)"/><path d="M2.977 21.027H.992v-.996h1.985zm0 0" fill="url(#d)"/><path d="M20.84 21.027h1.984v.993H20.84zm0 0" fill="url(#e)"/><path d="M5.457 3.164a.989.989 0 0 0-.992.992v.992h-2.48a.989.989 0 0 0-.993.993v7.937c0 .55.442.992.992.992h19.848a.991.991 0 0 0 .992-.992V6.141a.978.978 0 0 0-.25-.657V4.156a.989.989 0 0 0-.992-.992zm0 0" fill="#757575"/><path d="M5.457 3.164a.989.989 0 0 0-.992.992v.992h-2.48a.989.989 0 0 0-.993.993v7.937c0 .55.442.992.992.992h19.848a.991.991 0 0 0 .992-.992V6.141a.978.978 0 0 0-.25-.657V4.156a.989.989 0 0 0-.992-.992zm0 0" fill="url(#f)"/><path d="M52.912-84.013h402.211c5.833 0 10.583 4.75 10.583 10.583V95.887c0 5.916-4.75 10.582-10.583 10.582H52.912a10.544 10.544 0 0 1-10.583-10.582V-73.43c0-5.833 4.75-10.583 10.583-10.583zm0 0" transform="matrix(.04688 0 0 .04688 0 10.08)" fill="url(#g)" stroke-width="3" stroke-linecap="round" stroke="#212121"/><path d="M5.457 3.164a.989.989 0 0 0-.992.992v.125c0-.55.441-.992.992-.992h16.125c.55 0 .992.441.992.992v-.125a.989.989 0 0 0-.992-.992zm0 0" fill="#e6e6e6" fill-opacity=".588"/><path d="M5.457 3.094c-.586 0-1.062.476-1.062 1.062v.922h-2.41c-.587 0-1.063.477-1.063 1.063v7.937c0 .59.476 1.063 1.062 1.063h19.848c.586 0 1.063-.473 1.063-1.063V6.141c0-.258-.094-.496-.25-.68V4.156c0-.586-.477-1.062-1.063-1.062zm0 .14h16.125c.512 0 .922.41.922.922v1.356l.02.02c.14.16.23.374.23.609v7.937c0 .512-.41.922-.922.922H1.984a.919.919 0 0 1-.921-.922V6.141c0-.512.41-.922.921-.922h2.551V4.156c0-.511.41-.922.922-.922zm0 0" fill="#212121"/><path d="M1.984 9.613a.991.991 0 0 0-.992.992v9.426c0 .551.442.996.992.996h19.848a.994.994 0 0 0 .992-.996v-9.426H9.426a.991.991 0 0 1-.992-.992zm0 0" fill="#bdbdbd"/><path d="M1.984 21.027a.992.992 0 0 1-.992-.996v-.12c0 .546.442.991.992.991h19.848a.994.994 0 0 0 .992-.992v.121c0 .551-.445.996-.992.996zm0 0" fill-opacity=".196"/><path d="M1.984 9.613a.991.991 0 0 0-.992.992v.125c0-.55.442-.992.992-.992h6.45v-.125zm0 0" fill="#e6e6e6" fill-opacity=".937"/><path d="M9.426 10.73a.991.991 0 0 1-.992-.992v-.125c0 .551.445.996.992.992h13.457v.125zm0 0" fill="#e6e6e6" fill-opacity=".937"/><path d="M1.984 9.613a.991.991 0 0 0-.992.992v9.426c0 .551.442.996.992.996h19.848a.994.994 0 0 0 .992-.996v-9.426H9.426a.991.991 0 0 1-.992-.992zm0 0" fill="url(#h)"/><path d="M1.984 9.543c-.586 0-1.062.477-1.062 1.062v9.426c0 .59.476 1.067 1.062 1.067h19.848c.586 0 1.063-.477 1.063-1.067v-9.496H9.425a.919.919 0 0 1-.921-.922v-.07zm0 .14h6.383a1.06 1.06 0 0 0 1.059.993h13.328v9.355a.92.92 0 0 1-.922.926H1.984a.92.92 0 0 1-.921-.926v-9.426c0-.511.41-.921.921-.921zm0 0" fill="#212121"/></svg>
